src/Assets/icons/05-h5p/h5p-icon.svg

<svg viewBox="0 0 2000 2000" xmlns="http://www.w3.org/2000/svg" xml:space="preserve" style="fill-rule:evenodd;clip-rule:evenodd">
    <path style="fill:none" d="M0 0h2000v2000H0z"/>
    <path d="M1399 457.84c0-25.3-15.18-45.84-33.88-45.84H585.88c-18.699 0-33.88 20.54-33.88 45.84v1054.32c0 25.3 15.181 45.84 33.88 45.84h779.24c18.7 0 33.88-20.54 33.88-45.84V457.84Z" style="fill:#e6e6e6" transform="matrix(2.36128 0 0 1.7452 -1303.42 -719.023)"/>
    <path d="M1959.39 160.04c0-40.312-34.38-73.04-76.72-73.04H117.334c-42.346 0-76.725 32.728-76.725 73.04v1679.92c0 40.31 34.379 73.04 76.725 73.04H1882.67c42.34 0 76.72-32.73 76.72-73.04V160.04Z" style="fill:#45a0e5" transform="matrix(1.01662 0 0 1.06791 -18.123 -69.908)"/>
    <path d="M445.74 1000.3V756.99h150.85v209.25h163.02V756.99h121.75l-1.307 5.475c-2.539 10.635-47.071 207.77-52.49 232.36-3.023 13.715-4.904 25.535-4.181 26.255.722.72 30.514 5.34 66.205 10.26l64.891 8.95 9.895-11.58c27.937-32.684 75.417-33.24 102.837-1.2 35.94 41.98 4.73 107.54-51.08 107.29-19.798-.09-35.654-7.38-50.542-23.24l-11.784-12.55-64.806 9.19c-35.644 5.05-65.351 9.73-66.017 10.39-2.54 2.54 10.5 34.53 20.974 51.45 19.244 31.09 42.436 50.85 76.365 65.07 8.629 3.61 16.146 7 16.703 7.53.557.53-39.132.96-88.2.96H759.61v-180.05H596.59v180.05H445.74v-243.3Z" style="fill:#fff;fill-rule:nonzero;stroke:#fff;stroke-width:2.43px" transform="translate(-631.472 -628.962) scale(1.62791)"/>
    <path d="M1113.7 1241.5c1.27-1.17 7.9-3.95 14.73-6.16 58.23-18.88 103.08-90.97 103.13-165.77.03-43.19-12.99-76.781-41.35-106.631-19.26-20.271-39.73-33.177-66.9-42.178-17.86-5.915-22.88-6.462-60.83-6.629-38.79-.17-42.69.239-62.676 6.595-11.722 3.727-22.957 7.407-24.967 8.178-2.36.906-3.274.23-2.58-1.91.59-1.822 4.529-18.367 8.753-36.767l7.679-33.455h220.991v-100.35l113.75 1.212c106.04 1.131 115.07 1.563 133.21 6.383 50.45 13.403 80.17 40.402 95.38 86.669 5.61 17.083 6.42 23.632 6.6 53.528.15 25.428-.89 38.073-4.09 49.878-13.92 51.407-51 87.447-103.98 101.067-19.47 5.01-65.58 8.18-121.05 8.32l-41.97.11v180.04h-88.08c-50.62 0-87.09-.9-85.76-2.13h.01Zm261.63-281.61c16.96-5.037 32.19-19.719 36.3-35.012 7.73-28.713-8.27-57.752-36.21-65.695-4.84-1.376-26.6-3.201-48.34-4.056l-39.54-1.553v113.44l37.32-1.609c22.55-.973 42.52-3.155 50.47-5.514v-.001Z" style="fill:#fff;fill-rule:nonzero;stroke:#fff;stroke-width:2.43px" transform="translate(-631.472 -628.962) scale(1.62791)"/>
</svg>

<?xml version="1.0" encoding="UTF-8" standalone="no"?>
<!DOCTYPE svg PUBLIC "-//W3C//DTD SVG 1.1//EN" "http://www.w3.org/Graphics/SVG/1.1/DTD/svg11.dtd">
<svg width="100%" height="100%" viewBox="0 0 2000 2000" version="1.1" xmlns="http://www.w3.org/2000/svg" xmlns:xlink="http://www.w3.org/1999/xlink" xml:space="preserve" xmlns:serif="http://www.serif.com/" style="fill-rule:evenodd;clip-rule:evenodd;">
    <rect id="h5p_icon" x="0" y="0" width="2000" height="2000" style="fill:none;"/>
    <g id="h5p_icon1" serif:id="h5p_icon">
        <g transform="matrix(2.36128,0,0,1.7452,-1303.42,-719.023)">
            <path d="M1399,457.84C1399,432.54 1383.82,412 1365.12,412L585.88,412C567.181,412 552,432.54 552,457.84L552,1512.16C552,1537.46 567.181,1558 585.88,1558L1365.12,1558C1383.82,1558 1399,1537.46 1399,1512.16L1399,457.84Z" style="fill:rgb(230,230,230);"/>
        </g>
        <g transform="matrix(1,0,0,1,1000,1000)">
            <g transform="matrix(1,0,0,1,-1000,-1000)">
                <g transform="matrix(1.01662,0,0,1.06791,-18.1232,-69.908)">
                    <path d="M1959.39,160.04C1959.39,119.728 1925.01,87 1882.67,87L117.334,87C74.988,87 40.609,119.728 40.609,160.04L40.609,1839.96C40.609,1880.27 74.988,1913 117.334,1913L1882.67,1913C1925.01,1913 1959.39,1880.27 1959.39,1839.96L1959.39,160.04Z" style="fill:rgb(69,160,229);"/>
                </g>
                <g id="H5P" transform="matrix(1,0,0,1,2.27374e-13,-1)">
                    <g transform="matrix(1.62791,0,0,1.62791,-631.472,-627.962)">
                        <path d="M445.74,1000.3L445.74,756.99L596.59,756.99L596.59,966.24L759.61,966.24L759.61,756.99L881.36,756.99L880.053,762.465C877.514,773.1 832.982,970.235 827.563,994.825C824.54,1008.54 822.659,1020.36 823.382,1021.08C824.104,1021.8 853.896,1026.42 889.587,1031.34L954.478,1040.29L964.373,1028.71C992.31,996.026 1039.79,995.47 1067.21,1027.51C1103.15,1069.49 1071.94,1135.05 1016.13,1134.8C996.332,1134.71 980.476,1127.42 965.588,1111.56L953.804,1099.01L888.998,1108.2C853.354,1113.25 823.647,1117.93 822.981,1118.59C820.441,1121.13 833.481,1153.12 843.955,1170.04C863.199,1201.13 886.391,1220.89 920.32,1235.11C928.949,1238.72 936.466,1242.11 937.023,1242.64C937.58,1243.17 897.891,1243.6 848.823,1243.6L759.61,1243.6L759.61,1063.55L596.59,1063.55L596.59,1243.6L445.74,1243.6L445.74,1000.3Z" style="fill:white;fill-rule:nonzero;stroke:white;stroke-width:2.43px;"/>
                    </g>
                    <g transform="matrix(1.62791,0,0,1.62791,-631.472,-627.962)">
                        <path d="M1113.7,1241.5C1114.97,1240.33 1121.6,1237.55 1128.43,1235.34C1186.66,1216.46 1231.51,1144.37 1231.56,1069.57C1231.59,1026.38 1218.57,992.789 1190.21,962.939C1170.95,942.668 1150.48,929.762 1123.31,920.761C1105.45,914.846 1100.43,914.299 1062.48,914.132C1023.69,913.962 1019.79,914.371 999.804,920.727C988.082,924.454 976.847,928.134 974.837,928.905C972.477,929.811 971.563,929.135 972.257,926.995C972.847,925.173 976.786,908.628 981.01,890.228L988.689,856.773L1209.68,856.773L1209.68,756.423L1323.43,757.635C1429.47,758.766 1438.5,759.198 1456.64,764.018C1507.09,777.421 1536.81,804.42 1552.02,850.687C1557.63,867.77 1558.44,874.319 1558.62,904.215C1558.77,929.643 1557.73,942.288 1554.53,954.093C1540.61,1005.5 1503.53,1041.54 1450.55,1055.16C1431.08,1060.17 1384.97,1063.34 1329.5,1063.48L1287.53,1063.59L1287.53,1243.63L1199.45,1243.63C1148.83,1243.63 1112.36,1242.73 1113.69,1241.5L1113.7,1241.5ZM1375.33,959.89C1392.29,954.853 1407.52,940.171 1411.63,924.878C1419.36,896.165 1403.36,867.126 1375.42,859.183C1370.58,857.807 1348.82,855.982 1327.08,855.127L1287.54,853.574L1287.54,967.014L1324.86,965.405C1347.41,964.432 1367.38,962.25 1375.33,959.891L1375.33,959.89Z" style="fill:white;fill-rule:nonzero;stroke:white;stroke-width:2.43px;"/>
                    </g>
                </g>
            </g>
        </g>
    </g>
</svg>
